Yaru++/actions/16/draw-halfcircle4.svg

<svg viewBox="0 0 24 24" xmlns="http://www.w3.org/2000/svg"><path d="m4 11v1c0 4.432 3.568 8 8 8s8-3.568 8-8v-1zm1 1h14c0 3.878-3.122 7-7 7s-7-3.122-7-7z" fill="#808080"/></svg>

<svg xmlns="http://www.w3.org/2000/svg" viewBox="0 0 24 24">
 <defs>
  <style id="current-color-scheme" type="text/css">
   .ColorScheme-Text { color:#808080; }
  </style>
 </defs>
 <path fill="#808080" class="ColorScheme-Text" d="M 4 11 L 4 12 C 4 16.432 7.568 20 12 20 C 16.432 20 20 16.432 20 12 L 20 11 L 4 11 z M 5 12 L 19 12 C 19 15.878 15.878 19 12 19 C 8.122 19 5 15.878 5 12 z"/>
</svg>
